X:1
T:Stringimi pur Amore
T:Tiburtio Massaino
T:Stringimi pur Amore
C:Tiburtio Massaino
%%score [ 1 2 3 4 ]
L:1/8
Q:1/4=96
M:4/2
K:F
V:1 treble nm="Soprano" snm="S"
V:2 alto2 nm="Alto" snm="A"
V:3 alto nm="Tenor" snm="T"
V:4 tenor nm="Bass" snm="B"
V:1
 z16 |[K:Eb] z4 B6 G2 G4 | =A4 B4 c8 | B16 | z8 z2 d4 e2 | c4 B4 z8 | z2 d4 e2 c4 B4 | %7
w: |Strin- gi- mi|pur A- mo-|re,|Ch'al- tra-|men- te,|Ch'al- tra- men- te|
 A2 G4 c2 B6 G2 | A4 G4 F2 G4 =A2 | B4 G4 F8 | G8 z4 B4 | B2 E2 G6 F2 E4- | E2 DC D4 E8 | z16 | %14
w: non bra- mo, Ch'al- tra-|men- te non bra- mo|sciol- to il co-|re, non|bra- mo sciol- to il co-|* * * * re,||
 z8 B6 B2 | c4 B2 E2 B2 G2 A4 | G4 z2 G2 E2 F2 G4 | F2 B2 c4 B4 z2 G2 | E2 F2 G4 F4 E4 | F6 G2 A8 | %20
w: Se glie|for- za che noi a- mia-|mo, O- ve poss' i-|o, poss' i- o, O-|ve poss' i- o, Mo-|ver piu va-|
 G2 F2 F2 E2 A2 G2 F4 | G4 z2 B2 A2 B2 c4 | B2 e2 c2 B2 A2 G2 F4 | G4 G6 F2 G4 | F2 G2 G8 G4 | %25
w: go et piu gen- til de- si-|o, Mo- ver piu va-|go et piu gen- til de- si-|o, Cer- che- ro|fors' al- tro- ve,|
 z4 c4 =B2 c2 A4 | G4 z2 c2 e4 d2 c2 | c4 d2 e4 e2 c4 | c2 =B3 B c2 =A4 z4 | z2 B2 A2 G2 c4 B4 | %30
w: Al- tre bel- lez-|ze e do- ve Se|Ful- vi'ha'n se rac- col-|to, Tut- to quel ben|ch'in mil- le va di-|
 A4 G2 E4 F2 G4 | A2 A2 G4 C4 z2 G2- | G2 B4 A2 G2 G2 F4 | G8 z4 B4 | B2 G2 c6 B2 A4 | %35
w: sciol- to, Et se que-|ste ca- te- ne, M'ap-|* por- tan o- gni be-|ne Qual|li- ber- ta por- ri-|
 G4 c4 B4 A4 | G4 F4 B8 | B2 A2 G2 F2 G8- | G8 z4 B4- | B2 G2 G4 =A4 B4 | c8 B8- | B8 z8 | %42
w: a Non es- ser-|mi aspr' e ri-|a. _ _ _ _|_ Strin-|* gi- mi dun- qu'A-|mo- re,|_|
 z2 d4 e2 c4 B4 | z8 z2 d4 e2 | c4 B4 A2 G4 c2 | B6 G2 A4 G4 | F2 G4 =A2 B4 G4 | F8 G8 | %48
w: Ch'al- tra- men- te,|Ch'al- tra-|men- te non bra- mo,|Ch'al- tra- men- te|non bra- mo sciol- to il|co- re,|
 z4 B4 B2 E2 G4- | G2 F2 E6 DC D4 | E16 |] %51
w: non bra- mo sciol-|* to il co- * * *|re.|
V:2
 z16 |[K:Eb][K:treble] z8 z4 E4- | E2 D2 D4 E4 F4 | G8 F4 z2 B2- | B2 G2 B8 B4 | z2 F4 D2 E4 D4 | %6
w: |Strin-|* gi- mi pur A-|mo- re, Ch'al-|* tra- men- te,|Ch'al- tra- men- te|
 C2 D4 B,2 E2 C2 D4 | F2 D2 E4 D2 F4 =E2 | F4 B,2 C2 D2 B,2 C4 | B,4 E6 DC D4 | E4 z2 G4 F2 E4 | %11
w: non bra- mo, Ch'al- tra- men-|te non bra- mo, Ch'al- tra-|men- te non bra- mo sciol-|to il co- * * *|re, Ch'al- tra- men-|
 D2 B,2 E3 E E2 D2 C2 B,2 | z2 F4 F2 G8 | F2 B,2 F2 D2 E4 D2 G2 | F2 G2 E3 F G4 D2 G2 | %15
w: te non bra- mo sciol- to il co- re,|Se glie for-|za che noi a- mia- mo, O-|ve poss' i- * * o, O-|
 E2 F2 G8 F4 | z2 B,4 B,2 C4 B,2 E,2 | B,2 G,2 A,4 G,4 z2 E2 | C2 D2 E4 D4 z4 | B,4 D4 E4 F4 | %20
w: ve poss' i- o,|Se glie for- za che|noi a- mia- mo, O-|ve poss' i- o,|Mo- ver piu va-|
 B,4 z4 z4 B4 | B3 A G4 F2 E2 E2 F2 | G4 A2 GFED E4 D2 | E4 E6 D2 E4 | C2 E2 D4 C8 | %25
w: go, Mo-|ver piu va- go et piu gen-|til de- si- * * * * *|o, Cer- che- ro|fors' al- tro- ve,|
 z2 G3 F F2 G4 C4 | z2 E2 A4 G4 z2 G2 | =A4 B2 c4 B2 _A4 | G2 G3 G E2 F6 F2 | F2 G2 E6 F2 G4- | %30
w: Al- tre bel- lez- ze|e do- ve Se|Ful- vi'ha'n se rac- col-|to, Tut- to quel ben ch'in|mil- le va di- sciol-|
 G2 F2 E3 D C2 B,2 z4 | z16 | z2 F4 E4 D2 C2 C2 | E4 D4 F4 E4 | D2 E4 F2 G4 E4 | %35
w: * * * * * to,||M'ap- por- tan o- gni|be- ne Qual li-|ber- ta por- ri- a|
 z4 z2 C2 D2 B,2 F4 | D2 B,4 F4 E4 D2- | D2 C2 B,2 C2 B,2 C3 =B,/=A,/ B,2 | !fermata!C8 z8 | %39
w: Non es- ser- mi aspr'|e ri- a. Non es-|* ser- mi aspr' e ri- * * * *|a.|
 z4 E6 D2 D4 | E4 F4 G8 | F4 z2 B4 G2 B4- | B4 B4 z2 F4 D2 | E4 D4 C2 D4 B,2 | E2 C2 D4 F2 D2 E4 | %45
w: Strin- gi- mi|dun- qu'A- mo-|re, Ch'al- tra- men-|* te, Ch'al- tra-|men- te non bra- mo,|Ch'al- tra- men- te non bra-|
 D2 F4 =E2 F4 B,2 C2 | D2 B,2 C4 B,4 E4- | E2 DC D4 E4 z2 G2- | G2 F2 E4 D2 B,2 E4- | %49
w: mo, Ch'al- tra- men- te non|bra- mo sciol- to il co-|* * * * re, Ch'al-|* tra- men- te non bra-|
 E2 D2 C2 B,2 B,8 | B,16 |] %51
w: * mo sciol- to il co-|re.|
V:3
 z16 |[K:Eb][K:treble-8] z16 | z16 | z4 e6 d2 d4 | e4 f4 g8 | f8 z8 | z2 f2 d2 g3 f f2 g4 | %7
w: |||Strin- gi- mi|pur A- mo-|re,|Ch'al- tra- men- te non bra-|
 c2 B4 c2 fedc B4 | c2 d2 e4 B2 e4 c2 | e2 d2 z2 B2 B4 B4 | z2 B4 G2 A4 G4 | F2 G4 =A2 B4 G4 | %12
w: mo sciol- to il co- * * * *|re, non bra- mo sciol- to il|co- re, il co- re,|Ch'al- tra- men- te|non bra- mo sciol- to il|
 F8 E8 | z8 z4 z2 B2- | B2 B2 c4 B2 E2 B2 G2 | A4 G4 z2 e2 c2 d2 | e2 d2 z2 e2 e2 c2 e4 | %17
w: co- re,|Se|_ glie for- za che noi a-|mia- mo, O- ve poss'|i- o, O- ve poss' i-|
 d2 g2 e2 f2 g4 e4 | z8 z4 B4 | d3 e f4 c2 c2 c2 d2 | e2 d2 c3 Bcd e4 d2 | e4 z2 E2 F2 G2 A4 | %22
w: o, O- ve poss' i- o,|Mo-|ver piu va- go et piu gen-|til de- si- * * * * *|o, Mo- ver piu va-|
 G2 E2 F2 G2 A2 E2 B4 | E4 B6 B2 B4 | =A2 c2 =B4 c4 e4 | d2 e2 c4 d2 =e2 f4 | B4 z4 z4 z2 e2 | %27
w: go et piu gen- til de- si-|o, Cer- che- ro|fors' al- tro- ve, Al-|tre bel- lez- ze e do-|ve Se|
 f4 f2 a4 g2 f4 | e2 d3 d c2 c4 z2 d2 | c2 d2 e2 c2 c4 d4 | z8 z2 B4 c2- | c2 d3 d e2 c4 d2 e2- | %32
w: Ful- vi'ha'n se rac- col-|to, Tut- to quel ben ch'in|mil- le va di- sciol- to,|Et se|_ que- ste ca- te- ne, M'ap-|
 e2 B4 c4 B4 A2 | G4 G4 z8 | B4 c4 d2 e4 c2 | d4 c2 f4 e4 d2- | d2 e4 d2 g4 f4 | e4 d2 e4 dc d4 | %38
w: * por- tan o- gni|be- ne|Qual li- ber- ta por-|ri- a Non es- ser-|* mi aspr' e ri- a,|aspr' e ri- * * *|
 c8 z8 | z16 | z8 z4 e4- | e2 d2 d4 e4 f4 | g8 f8 | z8 z2 f2 d2 g2- | gf f2 g4 c2 B4 c2 | %45
w: a.||Strin-|* gi- mi dun- qu'A-|mo- re,|Ch'al- tra- men-|* te non bra- mo sciol- to il|
 fedc B4 c2 d2 e4 | B2 e4 c2 e2 d2 z2 B2 | B4 B4 z2 B4 G2 | A4 G4 F2 G4 =A2 | B4 G4 F8 | E16 |] %51
w: co- * * * * re, non bra-|mo sciol- to il co- re, il|co- re, Ch'al- tra-|men- te non bra- mo|sciol- to il co-|re.|
V:4
 z16 |[K:Eb][K:bass] B,6 G,2 G,4 C4- | C4 B,4 A,8 | G,8 z8 | z4 B,6 G,2 G,4 | A,4 B,4 C4 B,4 | %6
w: |Strin- gi- mi pur|_ A- mo-|re,|Strin- gi- mi|pur A- mo- re,|
 z2 B,4 G,2 A,4 G,4 | F,2 G,4 =A,2 B,4 G,4 | F,4 E,4 z2 E,2 E,2 F,2 | G,4 E,4 B,,8 | %10
w: Ch'al- tra- men- te|non bra- mo sciol- to il|co- re, non bra- mo|sciol- to il co-|
 E,4 z2 C,4 D,2 E,4 | B,,2 E,2 C,4 B,,4 C,2 E,2 | B,,8 E,8 | z2 B,4 B,2 C4 B,2 E,2 | %14
w: re, Ch'al- tra- men-|te non bra- mo sciol- to il|co- re,|Se glie for- za che|
 B,2 G,2 A,4 G,8 | z4 E,6 E,2 F,4 | E,2 B,2 G,2 E,2 A,4 G,4 | z2 E,2 C,2 D,2 E,4 C,4 | %18
w: noi a- mia- mo,|Se glie for-|za che noi a- mia- mo,|O- ve poss' i- o,|
 z2 B,2 G,2 A,2 B,4 E,4 | z4 B,4 A,3 G, F,4 | E,2 B,2 A,2 G,2 F,2 E,2 B,4 | E,8 z8 | z16 | %23
w: O- ve poss' i- o,|Mo- ver piu va-|go et piu gen- til de- si-|o,||
 z4 E,6 B,,2 E,4 | F,2 C,2 G,4 C,4 C4 | =B,2 C2 A,4 G,2 C,2 F,4 | E,4 z2 F,2 C4 G,2 C2 | %27
w: Cer- che- ro|fors' al- tro- ve, Al-|tre bel- lez- ze e do-|ve e do- ve Se|
 F,4 B,2 A,4 E,2 F,4 | C,2 G,3 G, A,2 F,4 B,4 | A,2 G,2 C4 A,4 G,4 | C,8 z4 E,4 | %31
w: Ful- vi'ha'n se rac- col-|to, Tut- to quel ben ch'in|mil- le va di- sciol-|to, Et|
 F,4 G,3 G, A,2 F,4 E,2 | z16 | z4 B,4 B,2 F,2 G,4- | G,2 G,2 A,4 G,4 C4 | B,6 A,2 G,4 F,4 | B,16 | %37
w: se que- ste ca- te- ne,||Qual li- ber- ta|_ por- ri- a Non|es- ser- mi aspr' e|ri-|
 G,16 | z8 B,6 G,2 | G,4 C8 B,4 | A,8 G,8 | z8 z4 B,4- | B,2 G,2 G,4 A,4 B,4 | C4 B,4 z2 B,4 G,2 | %44
w: a.|Strin- gi-|mi dun- qu'A-|mo- re,|Strin-|* gi- mi dun- qu'A-|mo- re, Ch'al- tra-|
 A,4 G,4 F,2 G,4 =A,2 | B,4 G,4 F,4 E,4 | z2 E,2 E,2 F,2 G,4 E,4 | B,,8 E,4 z2 C,2- | %48
w: men- te non bra- mo|sciol- to il co- re,|non bra- mo sciol- to il|co- re, Ch'al-|
 C,2 D,2 E,4 B,,2 E,2 C,4 | B,,4 C,2 E,2 B,,8 | E,16 |] %51
w: * tra- men- te non bra-|mo sciol- to il co-|re.|

